www/assets/icons/screen_lock_landscape.svg

<svg xmlns="http://www.w3.org/2000/svg" width="24" height="24" viewBox="0 0 24 24" fill='currentColor'><path d="M21 5H3c-1.1 0-2 .9-2 2v10c0 1.1.9 2 2 2h18c1.1 0 2-.9 2-2V7c0-1.1-.9-2-2-2m-2 12H5V7h14zm-9-1h4c.55 0 1-.45 1-1v-3c0-.55-.45-1-1-1v-1a2 2 0 1 0-4 0v1c-.55 0-1 .45-1 1v3c0 .55.45 1 1 1m.8-6c0-.66.54-1.2 1.2-1.2s1.2.54 1.2 1.2v1h-2.4z"/></svg>

<svg width="24" height="24" viewBox="0 0 24 24" xmlns="http://www.w3.org/2000/svg" fill='currentColor'><path d="M21 5H3C1.9 5 1 5.9 1 7V17C1 18.1 1.9 19 3 19H21C22.1 19 23 18.1 23 17V7C23 5.9 22.1 5 21 5ZM19 17H5V7H19V17ZM10 16H14C14.55 16 15 15.55 15 15V12C15 11.45 14.55 11 14 11V10C14 8.89 13.1 8 12 8C10.89 8 10 8.9 10 10V11C9.45 11 9 11.45 9 12V15C9 15.55 9.45 16 10 16ZM10.8 10C10.8 9.34 11.34 8.8 12 8.8C12.66 8.8 13.2 9.34 13.2 10V11H10.8V10Z"/></svg>
